X: 43153
T: Winter In Vermont
R: jig
M: 6/8
K: Gmajor
|:DGG FGA|GAB cdc|Bdg gfd|cAG FGA|
DGG Fdc|BGB ~c3|dgf dcA|DGF G3:|
|:B|d2g gag|dec ABc|Bdg gfg|c'ag fga|
d2g gag|fdc ABc|BdB cAF|DGF G2:|

